// HSV to RBG from https://www.rapidtables.com/convert/color/hsv-to-rgb.html
// Rotation matrix from https://en.wikipedia.org/wiki/Rotation_matrix

//Rainbow gradient
shader_type canvas_item;

void fragment() {
	float hue = UV.x * cos(radians(35.0)) - UV.y * sin(radians(35.0));
	hue = fract(hue + fract(TIME  * 0.2));
	float x = 1. - abs(mod(hue / (1./ 6.), 2.) - 1.);
	vec3 rainbow;
	if(hue < 1./6.){
		rainbow = vec3(1., x, 0.);
	} else if (hue < 1./3.) {
		rainbow = vec3(x, 1., 0);
	} else if (hue < 0.5) {
		rainbow = vec3(0, 1., x);
	} else if (hue < 2./3.) {
		rainbow = vec3(0., x, 1.);
	} else if (hue < 5./6.) {
		rainbow = vec3(x, 0., 1.);
	} else {
		rainbow = vec3(1., 0., x);
	}
	vec4 color = texture(TEXTURE, UV);
	COLOR = mix(color, vec4(rainbow, color.a), 0.5);
}